X:283
T: SCHOENE AUGEN SCHOENE STRAHLEN
N: Z0281
O: Europa, Mitteleuropa, Deutschland
R: Lyrisches Lied, Romanze
M: 3/4
L: 1/8
K: C
 | CB,CA,G,A, | G,2F,2E,2 |
CB,CA,G,A, | G,2F,2E,2 |
CCDDEE | CCDDEE |
C2EDCB, | C2z4

@@@ Tune index: 10041
